public/icons/social-media/LinkdIn.svg

<svg width="24" height="24" viewBox="0 0 24 24" fill="none" xmlns="http://www.w3.org/2000/svg">
<circle cx="12" cy="12" r="12" fill="#101010"/>
<path d="M14.1 9.59963C13.589 9.59788 13.0828 9.6969 12.6101 9.89102C12.1374 10.0851 11.7077 10.3706 11.3455 10.7309C10.9832 11.0913 10.6956 11.5196 10.4991 11.9912C10.3025 12.4629 10.2009 12.9687 10.2 13.4796V17.3996C10.2 17.5588 10.2632 17.7114 10.3757 17.8239C10.4883 17.9364 10.6409 17.9996 10.8 17.9996H12.2C12.3591 17.9996 12.5118 17.9364 12.6243 17.8239C12.7368 17.7114 12.8 17.5588 12.8 17.3996V13.4796C12.7999 13.2979 12.8381 13.1182 12.912 12.9522C12.986 12.7862 13.0942 12.6377 13.2294 12.5163C13.3646 12.3949 13.5239 12.3033 13.6969 12.2476C13.8699 12.1919 14.0527 12.1733 14.2333 12.193C14.5574 12.2338 14.8551 12.3921 15.0702 12.6378C15.2852 12.8836 15.4026 13.1997 15.4 13.5263V17.3996C15.4 17.5588 15.4632 17.7114 15.5757 17.8239C15.6883 17.9364 15.8409 17.9996 16 17.9996H17.4C17.5591 17.9996 17.7118 17.9364 17.8243 17.8239C17.9368 17.7114 18 17.5588 18 17.3996V13.4796C17.9991 12.9687 17.8975 12.4629 17.701 11.9912C17.5044 11.5196 17.2168 11.0913 16.8546 10.7309C16.4923 10.3706 16.0626 10.0851 15.5899 9.89102C15.1173 9.6969 14.611 9.59788 14.1 9.59963Z" fill="white"/>
<path d="M8.4 10.2002H6.6C6.26863 10.2002 6 10.4688 6 10.8002V17.4002C6 17.7316 6.26863 18.0002 6.6 18.0002H8.4C8.73137 18.0002 9 17.7316 9 17.4002V10.8002C9 10.4688 8.73137 10.2002 8.4 10.2002Z" fill="white"/>
<path d="M7.5 9C8.32843 9 9 8.32843 9 7.5C9 6.67157 8.32843 6 7.5 6C6.67157 6 6 6.67157 6 7.5C6 8.32843 6.67157 9 7.5 9Z" fill="white"/>
</svg>

<svg width="24" height="24" fill="none" xmlns="http://www.w3.org/2000/svg"><circle cx="12" cy="12" r="12" fill="#101010"/><path d="M14.1 9.6a3.887 3.887 0 0 0-3.9 3.88v3.92a.6.6 0 0 0 .6.6h1.4a.6.6 0 0 0 .6-.6v-3.92a1.295 1.295 0 0 1 1.433-1.287 1.334 1.334 0 0 1 1.167 1.333V17.4a.6.6 0 0 0 .6.6h1.4a.6.6 0 0 0 .6-.6v-3.92a3.888 3.888 0 0 0-3.9-3.88ZM8.4 10.2H6.6a.6.6 0 0 0-.6.6v6.6a.6.6 0 0 0 .6.6h1.8a.6.6 0 0 0 .6-.6v-6.6a.6.6 0 0 0-.6-.6ZM7.5 9a1.5 1.5 0 1 0 0-3 1.5 1.5 0 0 0 0 3Z" fill="#fff"/></svg>
